icons/bookmark-filled.svg

<svg xmlns="http://www.w3.org/2000/svg" width="24" height="24" viewBox="0 0 24 24">
    <path fill="#3A3A47" fill-rule="evenodd" d="M6 2h12c1.333 0 2 .667 2 2v16.532c0 .588-.222 1.01-.665 1.265-.443.256-.888.274-1.335.056l-6-2-6 2c-.48.216-.932.198-1.36-.056-.426-.253-.64-.675-.64-1.265V4c0-1.333.667-2 2-2z"/>
</svg>

<svg width="24" height="24" viewBox="0 0 24 24" fill="none" xmlns="http://www.w3.org/2000/svg">
<path fill-rule="evenodd" clip-rule="evenodd" d="M6 2H18C19.333 2 20 2.667 20 4V20.532C20 21.12 19.778 21.542 19.335 21.797C18.892 22.053 18.447 22.071 18 21.853L12 19.853L6 21.853C5.52 22.069 5.068 22.051 4.64 21.797C4.214 21.544 4 21.122 4 20.532V4C4 2.667 4.667 2 6 2Z" fill="#3A3A47"/>
</svg>
